X: 11989
T: Enrico
R: reel
M: 4/4
K: Dmajor
|:d2d2 dcdB|A2 AG FGAc|d2 fe defd|e2a2 agec|
defd dcdB|ABAG FGAc|d2 ef gfec|1 d2d2d2 fe:|2 d2 dc defg||
|:a2 ag fgfe|d2 defdef|gagf efed|cdBc AB (3cBA|
d2d2 cecA|d2d2 cecA|dcdefedc|1 d2 dc defg:|2 d2d2d2 fe||

